X:1
T:James Gibb editions
T:O misericordissime Jesu - Schütz
T:#
%%score 1 2
L:1/8
Q:1/4=108
M:4/4
K:F
V:1 treble-8 nm="Tenor"
V:2 bass nm="Continuo"
V:1
"^O misericordissime Jesu, SWV 309""^Heinrich Schütz\n(1585-1672)" z4 B2 B2 | B2 BB B4- | %2
w: O mi-|se- ri- cor- dis\-|
 B4 _A3 G | G8 | F4 z4 | c2 c2 c4- | c4 B3 A | A8 | G4 z2 d2 | d2 dd d4- | d4 c3 =B | =B8 | %12
w: * si- me|Je-|su.|o dul- cis\-|* si- me|Je-|su. o|gra- ti- o- sis\-|* si- me|Je-|
 A4 z cBA | d4 B4 | A2 AA A3 G | A3 A A4 | z BAG c4 | A4 G2 GG | A2 A2 =B3 B | =BdcB _e4 | %20
w: su, o Je- su,|Je- su,|sa- lus in te spe-|ran- ti- um,|o Je- su, Je-|su, sa- lus in|te cre- den- ti-|um, o Je- su, Je-|
 c4 A2 Bc | d4- dcBA | G3 G G4 | z GAB c4- | cBAG F4- | F4 E4 | F8 | z2 c2 A2 Ad | BB _e4 d>c | %29
w: su, sa- lus ad|te * con- fu- gi-|en- ti- um,|sa- lus ad te|* con- fu- gi- en\-|* ti-|um,|o Je- su, o|Je- su, dul- cis re-|
 c>c"^," c!courtesy!=e cc f2- | f2 _e>d d>d d2 | c2 cc c2 c2 | c4 B4 | z4 z2 d2 | G4 G2 GG | %35
w: mis- si- o, o Je- su, dul\-|* cis re- mis- si- o|o- mni- um pec- ca-|to- rum,|o|Je- su, prop- ter|
 GG G>^F A2 A2 | z4 dAA=B | c2 e2 =B3 A | A2 AE EF G2- | G2 F2 E3 D | !fermata!D8 | F2 z2 A2 z d | %42
w: no- men san- ctum tu- um,|sal- va, sal- va|me, ne per- e-|am, sal- va, sal- va me,|* ne per- e-|am.|O, o, o|
 AB ^F>E G2 G2 | z4 B2 z2 | d2 z g d_e =B>A | c2 c2 G_A _E>D | F2 FF F2 FF | F2 F2 (^F2 G2- | %48
w: Je- su, mi- se- re- re,|o,|o, o Je- su, mi- se-|re- re, Je- su, mi- se-|re- re, dum tem- pus est|mi- se- ren\- *|
 G2 ^F2) G4 | z2 D4 DD | D2 D2 z2 G2 | G2 GG G2 G2 | (^G2 A4 G2) | A8 | z2 F2 F2 FE | F2 F2 z2 FF | %56
w: * * di,|ne- que me|da- mnes in|tem- po- re ju- di-|can\- * *|di.|Si e- nim ad-|mi- si, un- de|
 F3 G A2 G2 | ^F4 F4 | z2 A3 AAG | A4 A4 | FGAF B2 A2 | G4 F4 | ABcA d2 cc | B3 A A4 | %64
w: me da- mna- re|po- tes,|tu non a- mi-|si- sti,|un- de me sal- va- re|po- tes,|un- de me sal- va- re, sal-|va- re po-|
 G2 dd g2 ff | _e2 d2 c4 | B8 | z4 z cFF | F3 E G4 | G4 z dGG | G3 ^F A4 | A4 z eAA | A3 G =B4 | %73
w: tes, me sal- va- re, sal-|va- re po-|tes.|Sis er- go|mi- hi Je-|sus, prop- ter hoc|no- men tu-|um, et mi- se-|re- re me-|
 =B2 z c c2 cd | d2 de e4- | e2 (e/f/g/f/) e4 | d8 | z2 f3 FGG | A3 A A2 =BB | c2 cc c2 c=B | %80
w: i, fac mi- hi se-|cun- dum hoc no\-|* men * * * tu-|um,|re- spi- ce me|mi- se- rum in- vo-|can- tem hoc no- men a-|
 c2 cc c2 c2 | (c6 =B2) | c8 | z2 _e3 GGA | A3 A A4 | z2 d3 c B2 | z2 d3 DEE | ^F3 F F2 FF | %88
w: ma- bi- le tu- um:|Je\- *|sus,|re- spi- ce me|mi- se- rum,|re- spi- ce,|re- spi- ce me|mi- se- rum in- vo-|
 G2 GG G2 G^F | G2 GG G2 G2 | (G6 ^F2) | !fermata!G8 |] %92
w: can- tem hoc no- men a-|ma- bi- le tu- um:|Je\- *|sus.|
V:2
 _E,8 | _E,4 D,4 | (x4- x4 | x4) x4 | F,,4 F,2 F,2 | F,4 _E,4 | (x4- x4 | x2) x4 x2 | %8
w: |* 6|3|||* 6|||
 G,,2 G,2 G,2 G,2 | G,4 F,4 | (x4- x4 | x4) x4 | A,,4 F,,4 | B,,4 G,,4 | D,4 x2- x2 | A,,8 | %16
w: ||||||* 7||
 G,,4 F,,4- | F,,4 C,2 _E,2 | D,4 G,,4 | G,,4 C,4 | C,2 D,E, F,4 | D,2 E,F, G,4- | G,F,_E,D, C,4 | %23
w: |||||||
 C,4 C,2 D,!courtesy!=E, | F,4- F,E,D,C, | B,,4 C,4 | F,,8 | F,,8 | x2- x2 x2 x2 | A,,4 (x2- x2 | %30
w: |||||5|* 5|
 x2) x2 B,,4 | _E,2 F,2 G,2 E,2 | F,4 B,,4 | G,,8 | G,,8 | G,,4 D,4 | G,D,D,E, F,2 A,2 | %37
w: ||||||* * * * 6 *|
 E,2 ^C,2 E,4 | A,,4 C,2 B,,2 | x2- x4 x2 | !fermata!D,8 | D,8 | D,4 G,,4 | G,,8 | G,,8 | C,8 | %46
w: 6 6 *|* * 6||||||||
 F,,4 B,,4- | B,,2 C,2 (x2- x2 | x2) x2 G,,4 | G,,8 | G,,4 G,,4 | C,6 D,2 | x2- x4 x2 | A,,8 | %54
w: ||||||||
 B,,8 | B,,8 | B,,4 x2- x2 | D,8 | ^C,8 | ^C,8 | D,2 C,2 B,,2 F,,2 | C,D,E,C, F,2 E,2 | %62
w: ||* 6||||||
 D,2 C,2 B,,2 A,,2 | G,,2 B,,2 D,E,^F,D, | G,2 F,F, _E,2 D,2 | C,2 B,,2 x2- x2 | B,,8 | F,,8 | %68
w: |||* * 4|||
 F,,4 C,4 | C,4 G,,4- | G,,4 D,4 | D,4 A,,4- | A,,4 E,4 | x2- x2 x2- x2 | ^F,4 G,2 ^G,2 | %75
w: |||||5 5|6 6 *|
 A,2 ^G,2 A,4 | D,8 | B,,6- B,,2 | F,6 D,2 | C,2 A,,2 F,,2 G,,2 | C,2 E,2 F,2 A,2 | F,4 G,4 | C,8 | %83
w: ||* 6|* 6||* 6 * *|||
 C,6 C,2 | ^C,4 D,3 =C, | B,,3 A,, G,,4 | G,,4- x2 x2 | D,6 D,2 | G,2 F,2 _E,2 D,2 | %89
w: * 6||||||
 C,2 D,2 _E,2 C,2 | x4- x4 | !fermata!G,,8 |] %92
w: |4||

